svgs/light/fort.svg

<svg xmlns="http://www.w3.org/2000/svg" viewBox="0 0 640 512"><!--! Font Awesome Pro 6.6.0 by @fontawesome - https://fontawesome.com License - https://fontawesome.com/license (Commercial License) Copyright 2024 Fonticons, Inc. --><path d="M32 96l64 0 32 0 64 0 0 16 0 48c0 17.7-14.3 32-32 32l-96 0c-17.7 0-32-14.3-32-32l0-48 0-16zM0 160c0 23.7 12.9 44.4 32 55.4l0 8.6 0 224c0 35.3 28.7 64 64 64l144 0 32 0 96 0 32 0 144 0c35.3 0 64-28.7 64-64l0-224 0-8.6c19.1-11.1 32-31.7 32-55.4l0-48 0-16 0-32 0-48c0-8.8-7.2-16-16-16s-16 7.2-16 16l0 16 0 32-32 0-32 0 0-32 0-16c0-8.8-7.2-16-16-16s-16 7.2-16 16l0 16 0 32-32 0-32 0 0-32 0-16c0-8.8-7.2-16-16-16s-16 7.2-16 16l0 48 0 32 0 16 0 48c0 11.7 3.1 22.6 8.6 32l-209.1 0c5.4-9.4 8.6-20.3 8.6-32l0-48 0-16 0-32 0-48c0-8.8-7.2-16-16-16s-16 7.2-16 16l0 16 0 32-32 0-32 0 0-32 0-16c0-8.8-7.2-16-16-16s-16 7.2-16 16l0 16 0 32L64 64 32 64l0-32 0-16C32 7.2 24.8 0 16 0S0 7.2 0 16L0 64 0 96l0 16 0 48zM400 480l0-80c0-44.2-35.8-80-80-80s-80 35.8-80 80l0 80-48 0 0-256 256 0 0 256-48 0zm80-256l96 0 0 224c0 17.7-14.3 32-32 32l-64 0 0-256zM64 448l0-224 96 0 0 256-64 0c-17.7 0-32-14.3-32-32zm304 32l-96 0 0-80c0-26.5 21.5-48 48-48s48 21.5 48 48l0 80zM608 160c0 17.7-14.3 32-32 32l-96 0c-17.7 0-32-14.3-32-32l0-48 0-16 64 0 32 0 64 0 0 16 0 48z"/></svg>

<svg xmlns="http://www.w3.org/2000/svg" viewBox="0 0 640 512"><!--! Font Awesome Pro 6.4.2 by @fontawesome - https://fontawesome.com License - https://fontawesome.com/license (Commercial License) Copyright 2023 Fonticons, Inc. --><path d="M32 96H96h32 64v16 48c0 17.7-14.3 32-32 32H64c-17.7 0-32-14.3-32-32V112 96zM0 160c0 23.7 12.9 44.4 32 55.4V224 448c0 35.3 28.7 64 64 64H240h32 96 32H544c35.3 0 64-28.7 64-64V224v-8.6c19.1-11.1 32-31.7 32-55.4V112 96 64 16c0-8.8-7.2-16-16-16s-16 7.2-16 16V32 64H576 544V32 16c0-8.8-7.2-16-16-16s-16 7.2-16 16V32 64H480 448V32 16c0-8.8-7.2-16-16-16s-16 7.2-16 16V64 96v16 48c0 11.7 3.1 22.6 8.6 32H215.4c5.4-9.4 8.6-20.3 8.6-32V112 96 64 16c0-8.8-7.2-16-16-16s-16 7.2-16 16V32 64H160 128V32 16c0-8.8-7.2-16-16-16s-16 7.2-16 16V32 64H64 32V32 16C32 7.2 24.8 0 16 0S0 7.2 0 16V64 96v16 48zM400 480V400c0-44.2-35.8-80-80-80s-80 35.8-80 80v80H192V224H448V480H400zm80-256h96V448c0 17.7-14.3 32-32 32H480V224zM64 448l0-224h96V480H96c-17.7 0-32-14.3-32-32zm304 32H272V400c0-26.5 21.5-48 48-48s48 21.5 48 48v80zM608 160c0 17.7-14.3 32-32 32H480c-17.7 0-32-14.3-32-32V112 96h64 32 64v16 48z"/></svg>
